X:1
T:Aksim, 87.87 D
T:Aksim, 87.87 D
T:William Matthew Golden, 1906
T:Public Domain Courtesy of the Cyber Hymnal™
C:William Matthew Golden, 1906
Z:Public Domain
Z:Courtesy of the Cyber Hymnal™
%%score ( 1 2 ) ( 3 4 )
L:1/8
Q:1/4=100
M:4/4
K:Ab
V:1 treble 
V:2 treble 
V:3 bass 
V:4 bass 
V:1
 ce | c4- [Ec]A[GB][Gc] | [EB][EA]- [EA]4 AA | F4- [DF][CE][EA][EB] | c6 Ac | %5
 e4- [Ae][Af][Ae][Ec] | [FB][FA] A4 EE | A4- [EA][EB][Dc][DB] | A6 AA | d4- [Fd][Fd][Af][Af] | %10
 [Ec] ([Ae-] e4) cB | A4- [FA][FA][Fc][FA] | B6 Ac | e4- [Ae][Af][Ae][Ec] | [FB][FA] A4 EE | %15
 A4- [EA][EB][Dc][DB] | A6 |] %17
V:2
 x2 | (E2 E2 A) x3 | x8 | D2 D2 x4 | (E2 EE E2) x2 | A2 A2 x4 | x2 (FFFF) x2 | E2 F2 x4 | %8
 (CEFF E2) x2 | F2 F2 x4 | x2 (AA AA) x2 | F2 F2 x4 | (G2 FA G2) x2 | A2 A2 x4 | x2 (FFFF) x2 | %15
 E2 F2 x4 | (CEFF E2) |] %17
V:3
 z2 | A,2 A,2 A,[A,C][E,D][E,E] | [A,D] ([A,C][A,C][G,A,C][A,C][A,C]) z2 | %3
 ([D,A,]2 [D,A,]2 [A,,A,])[A,,A,][C,A,][E,G,] | A,2 ([E,A,][C,A,] [A,,A,]2) z2 | %5
 [A,C]2 [A,C]2 [A,C][A,D][A,C][A,E] | [D,D][D,D] ([D,D][D,D][D,D][D,D]) z2 | %7
 ([A,,C]2 [F,C]2 [C,A,])[D,A,][E,A,][E,G,] | (A,CDD C2) z2 | %9
 ([D,A,]2 [D,A,]2 [D,A,])[D,A,][D,A,][D,A,] | A, ([A,C][E,C][C,A,][C,C][C,C]) z2 | %11
 ([F,C]2 [F,C]2 [F,C])[F,C][F,=D][F,D] | ([E,E]2 [B,,=D][B,,F] [E,E]2) z2 | %13
 ([A,C]2 [A,C]2 [A,C])[A,D][A,C][A,E] | [D,D][D,D] ([D,D][D,D][D,D][D,D]) z2 | %15
 ([A,,C]2 [F,C]2 [C,A,])[D,A,][E,A,][E,G,] | (A,CDD C2) |] %17
V:4
 x2 | (A,2 A,2 A,) x3 | x8 | x8 | A,2 x6 | x8 | x8 | x8 | A,,6 x2 | x8 | A, x7 | x8 | x8 | x8 | %14
 x8 | x8 | A,,6 |] %17

